img/place_form-value2.svg

<svg width="14" height="14" viewBox="0 0 14 14" fill="none" xmlns="http://www.w3.org/2000/svg">
<path fill-rule="evenodd" clip-rule="evenodd" d="M6.99935 2.0415C4.26527 2.0415 2.04102 4.26575 2.04102 6.99984C2.04102 9.73392 4.26527 11.9582 6.99935 11.9582C9.73343 11.9582 11.9577 9.73392 11.9577 6.99984C11.9577 4.26575 9.73343 2.0415 6.99935 2.0415ZM6.99935 12.8332C3.78285 12.8332 1.16602 10.2163 1.16602 6.99984C1.16602 3.78334 3.78285 1.1665 6.99935 1.1665C10.2158 1.1665 12.8327 3.78334 12.8327 6.99984C12.8327 10.2163 10.2158 12.8332 6.99935 12.8332Z" fill="#222222"/>
<path fill-rule="evenodd" clip-rule="evenodd" d="M8.99995 9.15359C8.92353 9.15359 8.84653 9.13376 8.77595 9.09234L6.57678 7.78042C6.44495 7.70109 6.36328 7.55817 6.36328 7.40417V4.57617C6.36328 4.33467 6.55928 4.13867 6.80078 4.13867C7.04286 4.13867 7.23828 4.33467 7.23828 4.57617V7.15567L9.22453 8.33984C9.43161 8.46409 9.49986 8.73242 9.3762 8.94009C9.29395 9.07717 9.1487 9.15359 8.99995 9.15359Z" fill="#222222"/>
</svg>

<svg width="14" height="14" viewBox="0 0 14 14" fill="none" xmlns="http://www.w3.org/2000/svg"><path fill-rule="evenodd" clip-rule="evenodd" d="M7 2.042A4.964 4.964 0 0 0 2.04 7a4.964 4.964 0 0 0 4.958 4.958A4.964 4.964 0 0 0 11.958 7a4.964 4.964 0 0 0-4.959-4.958zm0 10.791A5.84 5.84 0 0 1 1.165 7a5.84 5.84 0 0 1 5.833-5.833A5.84 5.84 0 0 1 12.833 7a5.84 5.84 0 0 1-5.834 5.833z" fill="#222"/><path fill-rule="evenodd" clip-rule="evenodd" d="M9 9.154a.44.44 0 0 1-.224-.062l-2.2-1.312a.44.44 0 0 1-.213-.376V4.576a.438.438 0 0 1 .875 0v2.58L9.225 8.34A.439.439 0 0 1 9 9.154z" fill="#222"/></svg>
